svg/24/camera-off.svg

<svg width="24" height="24" viewBox="0 0 24 24" fill="currentColor" xmlns="http://www.w3.org/2000/svg"><path fill-rule="evenodd" clip-rule="evenodd" d="M2.21967 21.7803C1.92678 21.4874 1.92678 21.0126 2.21967 20.7197L20.7197 2.21967C21.0126 1.92678 21.4874 1.92678 21.7803 2.21967C22.0732 2.51256 22.0732 2.98744 21.7803 3.28033L19.0607 6H20C21.1046 6 22 6.89543 22 8V19C22 20.1046 21.1046 21 20 21H4.06066L3.28033 21.7803C2.98744 22.0732 2.51256 22.0732 2.21967 21.7803ZM5.56066 19.5H20C20.2761 19.5 20.5 19.2761 20.5 19V8C20.5 7.72386 20.2761 7.5 20 7.5H17.5607L15.5657 9.49493C16.4528 10.3972 17 11.6347 17 13C17 15.7614 14.7614 18 12 18C10.6347 18 9.39724 17.4528 8.49493 16.5657L5.56066 19.5ZM9.55564 15.505C10.1865 16.1207 11.0489 16.5 12 16.5C13.933 16.5 15.5 14.933 15.5 13C15.5 12.0489 15.1207 11.1865 14.505 10.5556L9.55564 15.505Z"/><path d="M2 18.8209L3.5 17.3209V8C3.5 7.72386 3.72386 7.5 4 7.5H7C7.50153 7.5 7.96988 7.24935 8.24808 6.83205L9.80278 4.5H14.1972L15.0467 5.77422L16.1284 4.69256L15.2969 3.4453C15.1114 3.1671 14.7992 3 14.4648 3H9.53518C9.20083 3 8.8886 3.1671 8.70313 3.4453L7 6H4C2.89543 6 2 6.89543 2 8V18.8209Z"/><path d="M7.05786 13.7631L8.58326 12.2377C8.8767 10.9167 9.91666 9.8767 11.2377 9.58326L12.7631 8.05786C12.5143 8.01976 12.2594 8 12 8C9.23858 8 7 10.2386 7 13C7 13.2594 7.01976 13.5143 7.05786 13.7631Z"/></svg>

<svg xmlns="http://www.w3.org/2000/svg" width="24" height="24" fill="currentColor" viewBox="0 0 24 24">
  <path fill-rule="evenodd" d="M2.22 21.78a.75.75 0 0 1 0-1.06l18.5-18.5a.75.75 0 1 1 1.06 1.06L19.06 6H20a2 2 0 0 1 2 2v11a2 2 0 0 1-2 2H4.06l-.78.78a.75.75 0 0 1-1.06 0Zm3.34-2.28H20a.5.5 0 0 0 .5-.5V8a.5.5 0 0 0-.5-.5h-2.44l-1.994 1.995a5 5 0 0 1-7.07 7.07L5.56 19.5Zm3.996-3.995a3.5 3.5 0 0 0 4.95-4.95l-4.95 4.95Z" clip-rule="evenodd"/>
  <path d="m2 18.82 1.5-1.5V8a.5.5 0 0 1 .5-.5h3a1.5 1.5 0 0 0 1.248-.668L9.803 4.5h4.394l.85 1.274 1.081-1.081-.831-1.248A1 1 0 0 0 14.465 3h-4.93a1 1 0 0 0-.832.445L7 6H4a2 2 0 0 0-2 2v10.82Z"/>
  <path d="m7.058 13.763 1.525-1.525a3.505 3.505 0 0 1 2.655-2.655l1.525-1.525a5 5 0 0 0-5.705 5.705Z"/>
</svg>
